svg/emoji_u1f6e3.svg

<?xml version="1.0" encoding="UTF-8"?>
<svg width="128" height="128" enable-background="new 0 0 128 128" xmlns="http://www.w3.org/2000/svg"><g fill="#E0E0E0"><polygon points="36 57 28 57 28 52 21 52 21 45 9 45 9 52 4 52 4 67 22.83 67 28 67 35.88 67 38.67 67 56 67 56 55 36 55"/><polygon points="104 55 104 52 80 52 80 67 103.58 67 104.18 67 124 67 124 55"/></g><g opacity=".2"><g fill="#424242"><path d="m19 47v5.17c0 1.1 0.9 1.83 2 1.83h5v3.21c0 1.1 0.9 1.79 2 1.79h7.88c1.1 0 2.12-0.68 2.12-1.79v-0.21h16v8h-48v-11h3.5c1.1 0 1.5-0.73 1.5-1.83v-5.17h8m2-2h-12v7h-5v15h52v-12h-20v2h-8v-5h-7v-7z"/><path d="m102 54v0.85c0 1.1 1.08 2.15 2.18 2.15h17.82v8h-40v-11h20m2-2h-24v15h44v-12h-20v-3z"/></g></g><rect x="4.13" y="64" width="119.87" height="60" fill="#66BB6A"/><linearGradient id="f" x1="4.1347" x2="124" y1="94" y2="94" gradientUnits="userSpaceOnUse"><stop stop-color="#FDD835" offset="0"/><stop stop-color="#FFEB3B" offset="1"/></linearGradient><polygon points="4.13 124 44.03 64.03 84.02 64 124 124" fill="url(#f)"/><linearGradient id="e" x1="64" x2="64" y1="79.833" y2="164.35" gradientUnits="userSpaceOnUse"><stop stop-color="#616161" offset=".0061418"/><stop stop-color="#666" offset=".1862"/><stop stop-color="#767676" offset=".4145"/><stop stop-color="#909090" offset=".6687"/><stop stop-color="#B4B4B4" offset=".9399"/><stop stop-color="#BDBDBD" offset="1"/></linearGradient><polygon points="12 124 48.07 64 80.07 64 116 124" fill="url(#e)"/><g fill="#fff"><polygon points="55.57 67 52.6 67 53.65 64 56.31 64"/><path d="m48.66 95h-5.84l5.24-15h4.3l-3.7 15zm4.42-18h-3.94l2.77-8h3.17l-2 8z"/><polygon points="41.48 124 32.74 124 40.41 102 46.91 102"/></g><g fill="#fff"><polygon points="72.48 67 75.44 67 74.4 64 71.74 64"/><path d="m75.68 80h4.3l5.24 15h-5.84l-3.7-15zm-2.71-11h3.17l2.77 8h-3.94l-2-8z"/><polygon points="86.57 124 95.31 124 87.64 102 81.13 102"/></g><linearGradient id="d" x1="64" x2="64" y1="15.625" y2="81.898" gradientUnits="userSpaceOnUse"><stop stop-color="#424242" offset="0"/><stop stop-color="#4A4A4A" offset=".2678"/><stop stop-color="#606060" offset=".6865"/><stop stop-color="#757575" offset=".9928"/></linearGradient><path d="m109.57 49.74h-91.14v-31.31h91.15v31.31zm-88-3.15h84.85v-25.02h-84.85v25.02z" fill="url(#d)"/><linearGradient id="c" x1="108" x2="108" y1="15.625" y2="81.898" gradientUnits="userSpaceOnUse"><stop stop-color="#424242" offset="0"/><stop stop-color="#4A4A4A" offset=".2678"/><stop stop-color="#606060" offset=".6865"/><stop stop-color="#757575" offset=".9928"/></linearGradient><rect x="106" y="16" width="4" height="65" fill="url(#c)"/><linearGradient id="b" x1="20" x2="20" y1="15.625" y2="81.898" gradientUnits="userSpaceOnUse"><stop stop-color="#424242" offset="0"/><stop stop-color="#4A4A4A" offset=".2678"/><stop stop-color="#606060" offset=".6865"/><stop stop-color="#757575" offset=".9928"/></linearGradient><rect x="18" y="16" width="4" height="65" fill="url(#b)"/><linearGradient id="a" x1="64" x2="64" y1="52.581" y2="18.123" gradientUnits="userSpaceOnUse"><stop stop-color="#66BB6A" offset=".0105"/><stop stop-color="#61B665" offset=".2382"/><stop stop-color="#53A657" offset=".5267"/><stop stop-color="#3C8C40" offset=".8468"/><stop stop-color="#2E7D32" offset="1"/></linearGradient><path d="m98 51.18h-68c-1.1 0-2-0.9-2-2v-31.18c0-1.1 0.9-2 2-2h68c1.1 0 2 0.9 2 2v31.18c0 1.11-0.9 2-2 2z" fill="url(#a)"/><path d="m96.2 19.6v27.98h-64.4v-27.98h64.4m0.13-2.13h-64.66c-1.1 0-2 0.9-2 2v28.24c0 1.1 0.9 2 2 2h64.65c1.1 0 2-0.9 2-2v-28.24c0.01-1.1-0.89-2-1.99-2z" fill="#fff"/><line x1="55" x2="55" y1="18" y2="49" fill="none" stroke="#FAFAFA" stroke-miterlimit="10" stroke-width="2"/><g fill="#FAFAFA"><polygon points="49.53 39 43.92 45.08 38.31 39"/><rect x="40.67" y="34.82" width="6.52" height="6.32"/></g><g fill="#FAFAFA"><polygon points="83.53 39 77.92 45.08 72.31 39"/><rect x="74.67" y="34.82" width="6.52" height="6.32"/></g><circle cx="43.83" cy="27.33" r="4.67" fill="#F5F5F5" opacity=".3"/><path d="m89.25 31.33h-22.25c-1.65 0-3-1.35-3-3v-2c0-1.65 1.35-3 3-3h22.25c1.65 0 3 1.35 3 3v2c0 1.65-1.35 3-3 3z" fill="#F5F5F5" opacity=".3"/><g opacity=".2"><path d="M121,67v54H7.13V67H121 M124,64H4.13v60H124V64L124,64z" fill="#424242"/></g></svg>

<svg width="128" height="128" style="enable-background:new 0 0 128 128;" xmlns="http://www.w3.org/2000/svg" xmlns:xlink="http://www.w3.org/1999/xlink">
  <g>
    <polygon points="36,57 28,57 28,52 21,52 21,45 9,45 9,52 4,52 4,67 22.83,67 28,67 35.88,67 38.67,67 56,67 56,55 36,55 " style="fill:#E0E0E0;"/>
    <polygon points="104,55 104,52 80,52 80,67 103.58,67 104.18,67 124,67 124,55 " style="fill:#E0E0E0;"/>
  </g>
  <g style="opacity:0.2;">
    <g>
      <path d="M19,47v5.17c0,1.1,0.9,1.83,2,1.83h5v3.21c0,1.1,0.9,1.79,2,1.79h7.88c1.1,0,2.12-0.68,2.12-1.79 V57h16v8H38.67h-2.79H28h-5.17H6V54h3.5c1.1,0,1.5-0.73,1.5-1.83V47H19 M21,45H9v7H4v15h18.83H28h7.88h2.79H56V55H36v2h-8v-5h-7 V45L21,45z" style="fill:#424242;"/>
      <path d="M102,54v0.85c0,1.1,1.08,2.15,2.18,2.15H122v8h-17.82h-0.6H82V54H102 M104,52H80v15h23.58h0.6H124 V55h-20V52L104,52z" style="fill:#424242;"/>
    </g>
  </g>
  <rect height="60" style="fill:#66BB6A;" width="119.87" x="4.13" y="64"/>
  <linearGradient id="SVGID_1_" gradientUnits="userSpaceOnUse" x1="4.1347" x2="124" y1="94" y2="94">
    <stop offset="0" style="stop-color:#FDD835"/>
    <stop offset="1" style="stop-color:#FFEB3B"/>
  </linearGradient>
  <polygon points="4.13,124 44.03,64.03 84.02,64 124,124 " style="fill:url(#SVGID_1_);"/>
  <linearGradient id="SVGID_2_" gradientUnits="userSpaceOnUse" x1="64" x2="64" y1="79.8333" y2="164.3466">
    <stop offset="6.141754e-03" style="stop-color:#616161"/>
    <stop offset="0.1862" style="stop-color:#666666"/>
    <stop offset="0.4145" style="stop-color:#767676"/>
    <stop offset="0.6687" style="stop-color:#909090"/>
    <stop offset="0.9399" style="stop-color:#B4B4B4"/>
    <stop offset="1" style="stop-color:#BDBDBD"/>
  </linearGradient>
  <polygon points="12,124 48.07,64 80.07,64 116,124 " style="fill:url(#SVGID_2_);"/>
  <g>
    <polygon points="55.57,67 52.6,67 53.65,64 56.31,64 " style="fill:#FFFFFF;"/>
    <path d="M48.66,95h-5.84l5.24-15h4.3L48.66,95z M53.08,77h-3.94l2.77-8h3.17L53.08,77z" style="fill:#FFFFFF;"/>
    <polygon points="41.48,124 32.74,124 40.41,102 46.91,102 " style="fill:#FFFFFF;"/>
  </g>
  <g>
    <polygon points="72.48,67 75.44,67 74.4,64 71.74,64 " style="fill:#FFFFFF;"/>
    <path d="M75.68,80h4.3l5.24,15h-5.84L75.68,80z M72.97,69h3.17l2.77,8h-3.94L72.97,69z" style="fill:#FFFFFF;"/>
    <polygon points="86.57,124 95.31,124 87.64,102 81.13,102 " style="fill:#FFFFFF;"/>
  </g>
  <g>
    <g>
      <linearGradient id="SVGID_3_" gradientUnits="userSpaceOnUse" x1="64" x2="64" y1="15.625" y2="81.8981">
        <stop offset="0" style="stop-color:#424242"/>
        <stop offset="0.2678" style="stop-color:#4A4A4A"/>
        <stop offset="0.6865" style="stop-color:#606060"/>
        <stop offset="0.9928" style="stop-color:#757575"/>
      </linearGradient>
      <path d="M109.57,49.74H18.43V18.43h91.15V49.74z M21.57,46.59h84.85V21.57H21.57V46.59z" style="fill:url(#SVGID_3_);"/>
      <linearGradient id="SVGID_4_" gradientUnits="userSpaceOnUse" x1="108" x2="108" y1="15.625" y2="81.8981">
        <stop offset="0" style="stop-color:#424242"/>
        <stop offset="0.2678" style="stop-color:#4A4A4A"/>
        <stop offset="0.6865" style="stop-color:#606060"/>
        <stop offset="0.9928" style="stop-color:#757575"/>
      </linearGradient>
      <rect height="65" style="fill:url(#SVGID_4_);" width="4" x="106" y="16"/>
    </g>
    <linearGradient id="SVGID_5_" gradientUnits="userSpaceOnUse" x1="20" x2="20" y1="15.625" y2="81.8981">
      <stop offset="0" style="stop-color:#424242"/>
      <stop offset="0.2678" style="stop-color:#4A4A4A"/>
      <stop offset="0.6865" style="stop-color:#606060"/>
      <stop offset="0.9928" style="stop-color:#757575"/>
    </linearGradient>
    <rect height="65" style="fill:url(#SVGID_5_);" width="4" x="18" y="16"/>
  </g>
  <linearGradient id="SVGID_6_" gradientUnits="userSpaceOnUse" x1="64" x2="64" y1="52.5811" y2="18.1228">
    <stop offset="0.0105" style="stop-color:#66BB6A"/>
    <stop offset="0.2382" style="stop-color:#61B665"/>
    <stop offset="0.5267" style="stop-color:#53A657"/>
    <stop offset="0.8468" style="stop-color:#3C8C40"/>
    <stop offset="1" style="stop-color:#2E7D32"/>
  </linearGradient>
  <path d="M98,51.18H30c-1.1,0-2-0.9-2-2V18c0-1.1,0.9-2,2-2h68c1.1,0,2,0.9,2,2v31.18 C100,50.29,99.1,51.18,98,51.18z" style="fill:url(#SVGID_6_);"/>
  <path d="M96.2,19.6v27.98H31.8V19.6H96.2 M96.33,17.47H31.67c-1.1,0-2,0.9-2,2v28.24c0,1.1,0.9,2,2,2h64.65 c1.1,0,2-0.9,2-2V19.47C98.33,18.37,97.43,17.47,96.33,17.47L96.33,17.47z" style="fill:#FFFFFF;"/>
  <line style="fill:none;stroke:#FAFAFA;stroke-width:2;stroke-miterlimit:10;" x1="55" x2="55" y1="18" y2="49"/>
  <g>
    <polygon points="49.53,39 43.92,45.08 38.31,39 " style="fill:#FAFAFA;"/>
    <rect height="6.32" style="fill:#FAFAFA;" width="6.52" x="40.67" y="34.82"/>
  </g>
  <g>
    <polygon points="83.53,39 77.92,45.08 72.31,39 " style="fill:#FAFAFA;"/>
    <rect height="6.32" style="fill:#FAFAFA;" width="6.52" x="74.67" y="34.82"/>
  </g>
  <circle cx="43.83" cy="27.33" r="4.67" style="opacity:0.3;fill:#F5F5F5;"/>
  <path d="M89.25,31.33H67c-1.65,0-3-1.35-3-3v-2c0-1.65,1.35-3,3-3h22.25c1.65,0,3,1.35,3,3v2 C92.25,29.98,90.9,31.33,89.25,31.33z" style="opacity:0.3;fill:#F5F5F5;"/>
  <g style="opacity:0.2;">
    <path d="M121,67v54H7.13V67H121 M124,64H4.13v60H124V64L124,64z" style="fill:#424242;"/>
  </g>
</svg>
